Obsidian-SemiLight/actions/24s/view-filter.svg

<svg viewBox="0 0 24 24" xmlns="http://www.w3.org/2000/svg"><path d="m6 4-1 1v1 .3046875l5 7.0625005v3.632812.039062l3.990234 2.960938h.009766v-6.632812l5-7.0625005v-1.3046875l-1-1zm0 1h12v.9882812l-4.964844 7.0117188h-.035156v.048828.951172 4.019531l-2-1.484375v-2.535156-.951172-.048828h-.035156l-4.964844-7.0117188zm1 1 2 3v-2l2-1z" fill="#4d4d4d"/></svg>

<svg xmlns="http://www.w3.org/2000/svg" viewBox="0 0 24 24">
  <defs id="defs3051">
    <style type="text/css" id="current-color-scheme">
      .ColorScheme-Text {
        color:#4d4d4d;
      }
      </style>
  </defs>
 <path style="fill:currentColor;fill-opacity:1;stroke:none" 
     d="M 6 4 L 5 5 L 5 6 L 5 6.3046875 L 10 13.367188 L 10 17 L 10 17.039062 L 13.990234 20 L 14 20 L 14 13.367188 L 19 6.3046875 L 19 5 L 18 4 L 6 4 z M 6 5 L 18 5 L 18 5.9882812 L 13.035156 13 L 13 13 L 13 13.048828 L 13 14 L 13 18.019531 L 11 16.535156 L 11 14 L 11 13.048828 L 11 13 L 10.964844 13 L 6 5.9882812 L 6 5 z M 7 6 L 9 9 L 9 7 L 11 6 L 7 6 z "
     class="ColorScheme-Text"
     />
</svg>
